X: 14446
T: Galway, The
R: hornpipe
M: 4/4
K: Gmajor
|:D2|G2 Bd gdBG|FGAB cAFA|G2 B/c/d ~g2 gb|agfe dcBA|
G2 Bd gdBG|FGAB cgfe|dgfe dcBA|1 G2 ~G2 G2:|2 G2 ~G2 G2 f/g/a||
|:~b2bc' bagf|e^def e2 fg|a^gab a=gfe|fd e^c d2df|
gfga bgdB|cBcd egfe|1 dgfe dcBA|G2 ~G2 G2 f/g/a:|2 d z g/f/e dcBA|G2 ~G2 G2||

